icons/cloudy-night.svg

<svg width="53" height="41" viewBox="0 0 53 41" fill="none" xmlns="http://www.w3.org/2000/svg">
<path d="M0 28.6925C0 25.8084 0.853658 23.2723 2.58537 21.0346C4.31707 18.7968 6.53659 17.3796 9.26829 16.758C9.82927 14.1971 10.9756 11.9594 12.6829 10.0449C14.3902 8.13038 16.4634 6.76289 18.8537 5.94239C20.3659 5.42025 21.9268 5.14675 23.561 5.14675C25.5366 5.14675 27.4634 5.54457 29.2927 6.34021C29.9756 5.17162 30.7805 4.15221 31.7073 3.30685C32.6341 2.46149 33.5854 1.79018 34.561 1.34263C35.5366 0.895088 36.5122 0.546997 37.439 0.323225C38.3659 0.0994533 39.2927 0 40.1707 0C41.0976 0 42.0976 0.124317 43.1707 0.397816L45.1707 1.01941C45.5122 1.16859 45.6098 1.34263 45.5122 1.5664L45.1707 3.05822C45 3.82899 44.9268 4.55003 44.9268 5.19648C44.9268 5.96725 45.0488 6.76289 45.2927 7.55852C45.5366 8.35415 45.878 9.12492 46.3659 9.89569C46.8293 10.6665 47.4878 11.3378 48.3171 11.9594C49.1463 12.581 50.0732 13.0534 51.1219 13.3766L52.6341 13.9236C52.878 13.9982 53 14.1225 53 14.3214C53 14.3711 52.9756 14.4209 52.9512 14.4955L52.5122 16.1613C51.8537 18.8466 50.6098 20.96 48.8537 22.5512C49.8293 24.2917 50.3659 26.1565 50.439 28.1207C50.4634 28.245 50.4634 28.419 50.4634 28.6925C50.4634 30.9054 49.9268 32.9691 48.8293 34.8587C47.7561 36.7483 46.2683 38.2401 44.439 39.3341C42.5854 40.4281 40.561 41 38.3902 41H12.0244C9.85366 41 7.82927 40.453 5.97561 39.3341C4.12195 38.2153 2.68293 36.7235 1.60976 34.8587C0.536586 32.9939 0 30.9303 0 28.6925ZM4.17073 28.6925C4.17073 30.9054 4.95122 32.8199 6.51219 34.436C8.07317 36.0521 9.90244 36.8726 12.0244 36.8726H38.3902C40.561 36.8726 42.4146 36.077 43.9512 34.4609C45.4878 32.8448 46.2683 30.9303 46.2683 28.6925C46.2683 26.5045 45.4878 24.6398 43.9268 23.0734C42.3659 21.507 40.5122 20.7113 38.3659 20.7113H34.0244L33.7805 18.8466C33.5366 16.3354 32.5122 14.1722 30.7073 12.4069C28.9024 10.6416 26.7561 9.64706 24.2927 9.42329C24.2195 9.42329 24.0976 9.42329 23.9268 9.39842C23.7561 9.37356 23.6585 9.37356 23.561 9.37356C22.3171 9.37356 21.0732 9.62219 19.8049 10.0946V10.0449C18.0244 10.7411 16.5122 11.8848 15.3171 13.4512C14.0976 15.0176 13.3659 16.8078 13.122 18.8466L12.9512 20.6367L11.2927 20.7113C9.2439 20.96 7.53659 21.8302 6.17073 23.3469C4.80488 24.8636 4.17073 26.6289 4.17073 28.6925ZM32.8293 8.5282C35.4146 10.7908 37.0244 13.4263 37.6341 16.4348H38.4146C41.439 16.4348 44.0244 17.4045 46.1463 19.3687C46.9512 18.5979 47.561 17.7028 48 16.7083C45.7805 15.6392 44.0244 13.9982 42.7317 11.8102C41.4634 9.62219 40.8049 7.30988 40.8049 4.89812V4.30139C40.6829 4.27653 40.4878 4.27653 40.2195 4.27653C38.8049 4.25167 37.4146 4.59976 36.0732 5.37053C34.7317 6.11643 33.6341 7.1607 32.8293 8.5282Z" fill="#FFFBE9"/>
</svg>

<?xml version="1.0" encoding="UTF-8"?><svg id="Layer_2" xmlns="http://www.w3.org/2000/svg" viewBox="0 0 53 41"><defs><style>.cls-1{fill:#b3bfd2;}</style></defs><g id="Layer_1-2"><path id="cloudy-night" class="cls-1" d="M0,28.69c0-2.88,.85-5.42,2.59-7.66,1.73-2.24,3.95-3.65,6.68-4.28,.56-2.56,1.71-4.8,3.41-6.71,1.71-1.91,3.78-3.28,6.17-4.1,1.51-.52,3.07-.8,4.71-.8,1.98,0,3.9,.4,5.73,1.19,.68-1.17,1.49-2.19,2.41-3.03,.93-.85,1.88-1.52,2.85-1.96,.98-.45,1.95-.8,2.88-1.02,.93-.22,1.85-.32,2.73-.32,.93,0,1.93,.12,3,.4l2,.62c.34,.15,.44,.32,.34,.55l-.34,1.49c-.17,.77-.24,1.49-.24,2.14,0,.77,.12,1.57,.37,2.36,.24,.8,.59,1.57,1.07,2.34,.46,.77,1.12,1.44,1.95,2.06,.83,.62,1.76,1.09,2.8,1.42l1.51,.55c.24,.07,.37,.2,.37,.4,0,.05-.02,.1-.05,.17l-.44,1.67c-.66,2.69-1.9,4.8-3.66,6.39,.98,1.74,1.51,3.61,1.59,5.57,.02,.12,.02,.3,.02,.57,0,2.21-.54,4.28-1.63,6.17-1.07,1.89-2.56,3.38-4.39,4.48-1.85,1.09-3.88,1.67-6.05,1.67H12.02c-2.17,0-4.2-.55-6.05-1.67-1.85-1.12-3.29-2.61-4.37-4.48-1.07-1.86-1.61-3.93-1.61-6.17Zm4.17,0c0,2.21,.78,4.13,2.34,5.74,1.56,1.62,3.39,2.44,5.51,2.44h26.37c2.17,0,4.02-.8,5.56-2.41,1.54-1.62,2.32-3.53,2.32-5.77s-.78-4.05-2.34-5.62c-1.56-1.57-3.41-2.36-5.56-2.36h-4.34l-.24-1.86c-.24-2.51-1.27-4.67-3.07-6.44-1.8-1.77-3.95-2.76-6.41-2.98-.07,0-.2,0-.37-.02-.17-.02-.27-.02-.37-.02-1.24,0-2.49,.25-3.76,.72v-.05c-1.78,.7-3.29,1.84-4.49,3.41-1.22,1.57-1.95,3.36-2.2,5.4l-.17,1.79-1.66,.07c-2.05,.25-3.76,1.12-5.12,2.64-1.37,1.52-2,3.28-2,5.35ZM32.83,8.53c2.59,2.26,4.2,4.9,4.8,7.91h.78c3.02,0,5.61,.97,7.73,2.93,.8-.77,1.41-1.67,1.85-2.66-2.22-1.07-3.98-2.71-5.27-4.9-1.27-2.19-1.93-4.5-1.93-6.91v-.6c-.12-.02-.32-.02-.59-.02-1.41-.02-2.8,.32-4.15,1.09-1.34,.75-2.44,1.79-3.24,3.16Z"/></g></svg>
